packages/core/src/svgs/wnk.svg

<svg width="24" height="24" viewBox="0 0 24 24" fill="none" xmlns="http://www.w3.org/2000/svg">
<g clip-path="url(#clip0_31_20756)">
<path d="M0 0H24V24H0V0Z" fill="#283870"/>
<path d="M11.9999 15.8571C12.71 15.8571 13.2857 15.2814 13.2857 14.5714C13.2857 13.8613 12.71 13.2856 11.9999 13.2856C11.2899 13.2856 10.7142 13.8613 10.7142 14.5714C10.7142 15.2814 11.2899 15.8571 11.9999 15.8571Z" fill="white"/>
<path d="M15.2401 16.5341C14.7343 16.2427 14.1001 16.4056 13.6029 16.7099C13.1762 16.9717 12.685 17.1097 12.1843 17.1084C11.8444 17.1152 11.5064 17.055 11.1897 16.9312C10.8731 16.8074 10.5839 16.6224 10.3387 16.3868C10.0936 16.1512 9.89723 15.8696 9.76093 15.5581C9.62462 15.2465 9.55103 14.9112 9.54434 14.5713C9.55103 14.2313 9.62462 13.896 9.76093 13.5845C9.89723 13.273 10.0936 12.9914 10.3387 12.7558C10.5839 12.5202 10.8731 12.3352 11.1897 12.2114C11.5064 12.0875 11.8444 12.0273 12.1843 12.0341C12.6883 12.0326 13.1827 12.1721 13.6115 12.437C14.1386 12.767 14.8329 12.9299 15.3429 12.5784C15.8443 12.2356 15.9772 11.5327 15.5229 11.1213C14.6032 10.3011 13.4123 9.85071 12.1801 9.857C9.48434 9.857 7.28577 11.9656 7.28577 14.5713C7.28577 17.177 9.48005 19.2856 12.1843 19.2856C13.4572 19.2856 14.6143 18.8184 15.4843 18.0513C15.9772 17.6227 15.8058 16.8641 15.2401 16.5341Z" fill="white"/>
<path d="M18.6429 8.01453C18.93 7.74024 18.93 7.29453 18.6215 7.04167C16.7338 5.52261 14.3801 4.70073 11.9572 4.71453C9.57195 4.70153 7.25282 5.49774 5.3786 6.9731C5.30594 7.03052 5.24665 7.10306 5.20482 7.18569C5.163 7.26831 5.13964 7.35904 5.13638 7.45159C5.13312 7.54414 5.15003 7.6363 5.18593 7.72166C5.22184 7.80703 5.27588 7.88356 5.34431 7.94596C5.63574 8.22881 6.11574 8.2331 6.44145 7.98453C7.94145 6.8231 9.86145 6.12453 11.9572 6.12453C14.0872 6.12453 16.0372 6.84453 17.5457 8.04024C17.8672 8.29738 18.3472 8.29738 18.6386 8.01453H18.6429ZM16.8 9.77595C17.0915 9.50167 17.0915 9.06024 16.7786 8.81595C15.4 7.74959 13.7043 7.17484 11.9615 7.1831C10.1615 7.1831 8.50288 7.77453 7.2086 8.76453C6.89145 9.00453 6.88717 9.45024 7.17003 9.72453C7.46145 10.0117 7.94145 10.0117 8.27574 9.76738C9.34958 8.99675 10.6397 8.5857 11.9615 8.5931C13.3715 8.5931 14.67 9.04738 15.6943 9.81024C16.0286 10.0545 16.5086 10.0588 16.8043 9.77595H16.8ZM14.7043 12.0688C14.9872 11.7945 14.9915 11.3574 14.67 11.1302C13.8745 10.5758 12.9269 10.2809 11.9572 10.286C10.9586 10.286 10.0372 10.586 9.28717 11.1002C8.96145 11.3274 8.96145 11.7645 9.24431 12.0388C9.53574 12.326 10.0243 12.3174 10.3886 12.1074C10.871 11.8303 11.4182 11.6859 11.9745 11.689C12.5308 11.692 13.0764 11.8423 13.5557 12.1245C13.9157 12.3388 14.4043 12.3517 14.7 12.0688H14.7043Z" fill="#E5B909"/>
</g>
<defs>
<clipPath id="clip0_31_20756">
<rect width="24" height="24" fill="white"/>
</clipPath>
</defs>
</svg>

<svg xmlns="http://www.w3.org/2000/svg" width="24" height="24" fill="none" viewBox="0 0 24 24"><g clip-path="url(#a)"><path fill="#283870" d="M0 0h24v24H0z"/><path fill="#fff" d="M12 15.857a1.286 1.286 0 1 0 0-2.572 1.286 1.286 0 0 0 0 2.572"/><path fill="#fff" d="M15.24 16.534c-.506-.291-1.14-.128-1.637.176a2.7 2.7 0 0 1-1.419.398 2.59 2.59 0 0 1-2.64-2.537 2.59 2.59 0 0 1 2.64-2.537 2.7 2.7 0 0 1 1.428.403c.527.33 1.22.493 1.73.141.502-.342.635-1.045.18-1.457a4.98 4.98 0 0 0-3.342-1.264c-2.696 0-4.894 2.109-4.894 4.714s2.194 4.715 4.898 4.715c1.273 0 2.43-.468 3.3-1.235.493-.428.322-1.187-.244-1.517"/><path fill="#E5B909" d="M18.643 8.015c.287-.275.287-.72-.021-.973a10.53 10.53 0 0 0-6.665-2.327A10.54 10.54 0 0 0 5.38 6.973a.64.64 0 0 0-.035.973c.292.283.772.287 1.097.039a9 9 0 0 1 5.516-1.86c2.13 0 4.08.72 5.589 1.915.321.257.801.257 1.093-.025zM16.8 9.775c.291-.273.291-.715-.021-.959a7.8 7.8 0 0 0-4.818-1.633c-1.8 0-3.458.592-4.752 1.582-.318.24-.322.685-.039.96.291.287.771.287 1.106.042a6.26 6.26 0 0 1 3.685-1.174c1.41 0 2.709.454 3.733 1.217.335.245.815.249 1.11-.034zm-2.096 2.294c.283-.275.287-.712-.034-.939a4.7 4.7 0 0 0-2.713-.844c-.998 0-1.92.3-2.67.814-.326.227-.326.665-.043.939.292.287.78.278 1.145.068a3.15 3.15 0 0 1 3.167.018c.36.214.848.227 1.144-.056z"/></g><defs><clipPath id="a"><path fill="#fff" d="M0 0h24v24H0z"/></clipPath></defs></svg>
